X:1
T:0003 - Psalm Goudimel
T:Psalm 3
T:Melodie: Louis Bourgeois 1551
T:Harmonisatie: Claude Goudimel 1565
%%score { ( 1 2 ) | ( 3 4 ) }
L:1/8
M:4/4
K:D
V:1 treble nm="Orgel" snm="Org."
V:2 treble 
V:3 bass 
V:4 bass 
V:1
"^c.f." D4 A4 A4 B2 c2 d4 z4 | d4 c2 B2 A2 G2 A4 z4 | F4 F2 D2 G2 F2 E4 D4 z4 | %3
 A4 A2 B2 A2 G2 F4 z4 | F4 A2 A2 G2 F2 E4 z4 | F4 G2 F2 D2 F2 E4 D4 z4 | D4 D2 E2 F2 G2 A4 z4 | %7
 A4 B2 c2 d2 B2 A4 z4 | A4 A2 A2 B2 A2 G4 F4 z4 | D4 F2 A2 A2 ^G2 A4 z4 | A4 B2 d2 d2 c2 d4 z4 | %11
 d4 B2 A2 G2 F2 E4 D8 | x8 || F4 F4 F4 ^G2 A2 A4 z4 | A4 A2 G2 F2 E2 E4 z4 | %15
 D4 D2 F2 E2 D4 ^C2 D4 z4 | F4 F2 G2 F2 E2 ^D4 z4 | D4 E2 F2 E2 A2 A4 z4 | %18
 A4 B2 A2 F2 D4 C2 D4 z4 | A4 A2 A2 d2 B2 c4 z4 | A4 G2 A2 A2 ^G2 A4 z4 | %21
 F4 E2 F2 G2 F2 E4 ^D4 z4 | F4 D2 E2 F2 E2 E4 z4 | F4 G2 B2 A2 A2 A4 z4 | A4 G2 F2 E2 A2 A4 F8 |] %25
V:2
 A,4 D4 C4 E2 E2 F4 x4 | F4 F2 D2 D2 B,2 C4 x4 | D4 D2 D2 E2 D4 C2 D4 x4 | F4 F2 G2 F2 E2 ^D4 x4 | %4
 D4 C2 D2 B,2 D2 C4 x4 | D4 D2 D2 D2 D4 C2 D4 x4 | A,4 A,2 A,2 ^D2 E2 C4 x4 | %7
 C4 E2 E2 F2 E2 C4 x4 | D4 C2 D2 D2 D2 B,4 B,4 x4 | A,4 B,2 C2 D2 B,2 C4 x4 | %10
 D4 D2 G2 E2 E2 F4 x4 | F4 D2 D2 B,2 D4 C2 D8 | x8 || A,4 D4 C4 E2 E2 F4 x4 | %14
 F4 F2 D2 D2 B,2 C4 x4 | A,4 A,2 A,2 =C2 A,2 A,4 F,4 x4 | D4 D2 D2 D2 B,2 B,4 x4 | %17
 A,4 C2 D2 B,2 D2 C4 x4 | D4 D2 D2 A,2 A,2 A,4 F,4 x4 | F4 F2 E2 ^D2 E2 E4 x4 | %20
 C4 E2 E2 F2 E2 C4 x4 | D4 C2 D2 D2 D2 B,4 B,4 x4 | A,4 B,2 C2 D2 B,2 C4 x4 | %23
 D4 D2 G2 E2 E2 F4 x4 | F4 D2 D2 B,2 D4 C2 D8 |] %25
V:3
 F,4 F,4 F,4 ^G,2 A,2 A,4 z4 | A,4 A,2 G,2 F,2 E,2 A,4 z4 | A,4 A,2 F,2 =C2 A,2 A,4 F,4 z4 | %3
 D4 D2 D2 D2 B,2 B,4 z4 | A,4 A,2 F,2 G,2 A,2 A,4 z4 | A,4 B,2 A,2 F,2 A,2 A,4 F,4 z4 | %6
 F,4 F,2 E,2 D,2 B,2 E,4 z4 | A,4 G,2 A,2 A,2 ^G,2 A,4 z4 | F,4 E,2 F,2 G,2 F,2 E,4 ^D,4 z4 | %9
 F,4 D,2 E,2 F,2 E,2 E,4 z4 | F,4 G,2 B,2 A,2 A,2 A,4 z4 | A,4 G,2 F,2 G,2 A,2 A,4 F,8 | x8 || %13
"^c.f." D,4 A,4 A,4 B,2 C2 D4 z4 | D4 C2 B,2 A,2 G,2 A,4 z4 | F,4 F,2 D,2 G,2 F,2 E,4 D,4 z4 | %16
 A,4 A,2 B,2 A,2 G,2 F,4 z4 | F,4 A,2 A,2 G,2 F,2 E,4 z4 | F,4 G,2 F,2 D,2 F,2 E,4 D,4 z4 | %19
 D,4 D,2 E,2 F,2 G,2 A,4 z4 | A,4 B,2 C2 D2 B,2 A,4 z4 | A,4 A,2 A,2 B,2 A,2 G,4 F,4 z4 | %22
 D,4 F,2 A,2 A,2 ^G,2 A,4 z4 | A,4 B,2 D2 D2 C2 D4 z4 | D4 B,2 A,2 G,2 F,2 E,4 D,8 |] %25
V:4
 D,4 D,4 F,4 E,2 A,,2 D,4 x4 | D,4 F,2 G,2 D,2 E,2 A,,4 x4 | D,4 D,2 D,2 =C,2 D,2 A,,4 D,4 x4 | %3
 D,4 D,2 G,,2 D,2 E,2 B,,4 x4 | D,4 A,,2 D,2 E,2 D,2 A,,4 x4 | D,4 G,,2 D,2 D,2 D,2 A,,4 D,4 x4 | %6
 D,4 D,2 C,2 B,,2 E,2 A,,4 x4 | A,4 E,2 A,2 D,2 E,2 F,4 x4 | D,4 A,,2 D,2 G,,2 D,2 E,4 B,,4 x4 | %9
 D,4 B,,2 A,,2 D,2 E,2 A,,4 x4 | D,4 G,2 G,2 A,2 A,2 D,4 x4 | D,4 G,2 D,2 E,2 D,2 A,,4 D,8 | x8 || %13
 D,4 D,4 F,4 E,2 A,,2 D,4 x4 | D,4 F,2 G,2 D,2 E,2 A,,4 x4 | D,4 D,2 D,2 =C,2 D,2 A,,4 D,4 x4 | %16
 D,4 D,2 G,,2 D,2 E,2 B,,4 x4 | D,4 A,,2 D,2 E,2 D,2 A,,4 x4 | D,4 G,,2 D,2 D,2 D,2 A,,4 D,4 x4 | %19
 D,4 D,2 C,2 B,,2 E,2 A,,4 x4 | A,4 E,2 A,2 D,2 E,2 F,4 x4 | D,4 A,,2 D,2 G,,2 D,2 E,4 B,,4 x4 | %22
 D,4 B,,2 A,,2 D,2 E,2 A,,4 x4 | D,4 G,2 G,2 A,2 A,2 D,4 x4 | D,4 G,2 D,2 E,2 D,2 A,,4 D,8 |] %25

